rospo-light/16x16/actions/view-compact.svg

<?xml version="1.0" encoding="UTF-8" standalone="no"?>
<svg xmlns="http://www.w3.org/2000/svg" width="22" height="22" viewBox="0 0 22 22">
 <defs>
  <style type="text/css" id="current-color-scheme">
   .ColorScheme-Text { color:#5c616c; } .ColorScheme-Highlight { color:#5294e2; }
  </style>
 </defs>
 <path style="fill:currentColor;opacity:1" class="ColorScheme-Text" transform="translate(3 3)" d="M 2.25 4.0039062 C 2.1115 4.0039062 2 4.1154064 2 4.2539062 L 2 5.7539062 C 2 5.8924062 2.1115 6.0039062 2.25 6.0039062 L 3.75 6.0039062 C 3.8885 6.0039062 4 5.8924063 4 5.7539062 L 4 4.2539062 C 4 4.1154063 3.8885 4.0039062 3.75 4.0039062 L 2.25 4.0039062 z M 5.25 4.0039062 C 5.1115 4.0039062 5 4.1154064 5 4.2539062 L 5 5.7539062 C 5 5.8924062 5.1115 6.0039062 5.25 6.0039062 L 6.75 6.0039062 C 6.8885 6.0039062 7 5.8924063 7 5.7539062 L 7 4.2539062 C 7 4.1154063 6.8885 4.0039062 6.75 4.0039062 L 5.25 4.0039062 z M 8.25 4.0039062 C 8.1115 4.0039062 8 4.1154064 8 4.2539062 L 8 5.7539062 C 8 5.8924062 8.1115 6.0039062 8.25 6.0039062 L 9.75 6.0039062 C 9.8885 6.0039062 10 5.8924063 10 5.7539062 L 10 4.2539062 C 10 4.1154063 9.8885 4.0039062 9.75 4.0039062 L 8.25 4.0039062 z M 11.25 4.0039062 C 11.1115 4.0039062 11 4.1154064 11 4.2539062 L 11 5.7539062 C 11 5.8924062 11.1115 6.0039062 11.25 6.0039062 L 12.75 6.0039062 C 12.8885 6.0039062 13 5.8924063 13 5.7539062 L 13 4.2539062 C 13 4.1154063 12.8885 4.0039062 12.75 4.0039062 L 11.25 4.0039062 z M 2.25 7.0039062 C 2.1115 7.0039063 2 7.1154064 2 7.2539062 L 2 8.7539062 C 2 8.8924063 2.1115 9.0039062 2.25 9.0039062 L 3.75 9.0039062 C 3.8885 9.0039062 4 8.8924063 4 8.7539062 L 4 7.2539062 C 4 7.1154063 3.8885 7.0039062 3.75 7.0039062 L 2.25 7.0039062 z M 5.25 7.0039062 C 5.1115 7.0039063 5 7.1154064 5 7.2539062 L 5 8.7539062 C 5 8.8924063 5.1115 9.0039062 5.25 9.0039062 L 6.75 9.0039062 C 6.8885 9.0039062 7 8.8924063 7 8.7539062 L 7 7.2539062 C 7 7.1154063 6.8885 7.0039062 6.75 7.0039062 L 5.25 7.0039062 z M 8.25 7.0039062 C 8.1115 7.0039063 8 7.1154064 8 7.2539062 L 8 8.7539062 C 8 8.8924063 8.1115 9.0039062 8.25 9.0039062 L 9.75 9.0039062 C 9.8885 9.0039062 10 8.8924063 10 8.7539062 L 10 7.2539062 C 10 7.1154063 9.8885 7.0039062 9.75 7.0039062 L 8.25 7.0039062 z M 11.25 7.0039062 C 11.1115 7.0039063 11 7.1154064 11 7.2539062 L 11 8.7539062 C 11 8.8924063 11.1115 9.0039062 11.25 9.0039062 L 12.75 9.0039062 C 12.8885 9.0039062 13 8.8924063 13 8.7539062 L 13 7.2539062 C 13 7.1154063 12.8885 7.0039062 12.75 7.0039062 L 11.25 7.0039062 z M 2.25 10.003906 C 2.1115 10.003906 2 10.115406 2 10.253906 L 2 11.753906 C 2 11.892406 2.1115 12.003906 2.25 12.003906 L 3.75 12.003906 C 3.8885 12.003906 4 11.892406 4 11.753906 L 4 10.253906 C 4 10.115406 3.8885 10.003906 3.75 10.003906 L 2.25 10.003906 z M 5.25 10.003906 C 5.1115 10.003906 5 10.115406 5 10.253906 L 5 11.753906 C 5 11.892406 5.1115 12.003906 5.25 12.003906 L 6.75 12.003906 C 6.8885 12.003906 7 11.892406 7 11.753906 L 7 10.253906 C 7 10.115406 6.8885 10.003906 6.75 10.003906 L 5.25 10.003906 z M 8.25 10.003906 C 8.1115 10.003906 8 10.115406 8 10.253906 L 8 11.753906 C 8 11.892406 8.1115 12.003906 8.25 12.003906 L 9.75 12.003906 C 9.8885 12.003906 10 11.892406 10 11.753906 L 10 10.253906 C 10 10.115406 9.8885 10.003906 9.75 10.003906 L 8.25 10.003906 z M 11.25 10.003906 C 11.1115 10.003906 11 10.115406 11 10.253906 L 11 11.753906 C 11 11.892406 11.1115 12.003906 11.25 12.003906 L 12.75 12.003906 C 12.8885 12.003906 13 11.892406 13 11.753906 L 13 10.253906 C 13 10.115406 12.8885 10.003906 12.75 10.003906 L 11.25 10.003906 z"/>
</svg>

<svg height="16" viewBox="0 0 16 16" width="16" xmlns="http://www.w3.org/2000/svg"><path d="m2.25 4.0039062c-.1385 0-.25.1115002-.25.25v1.5c0 .1385.1115.25.25.25h1.5c.1385 0 .25-.1114999.25-.25v-1.5c0-.1384999-.1115-.25-.25-.25zm3 0c-.1385 0-.25.1115002-.25.25v1.5c0 .1385.1115.25.25.25h1.5c.1385 0 .25-.1114999.25-.25v-1.5c0-.1384999-.1115-.25-.25-.25zm3 0c-.1385 0-.25.1115002-.25.25v1.5c0 .1385.1115.25.25.25h1.5c.1385 0 .25-.1114999.25-.25v-1.5c0-.1384999-.1115-.25-.25-.25zm3 0c-.1385 0-.25.1115002-.25.25v1.5c0 .1385.1115.25.25.25h1.5c.1385 0 .25-.1114999.25-.25v-1.5c0-.1384999-.1115-.25-.25-.25zm-9 3c-.1385.0000001-.25.1115002-.25.25v1.5c0 .1385001.1115.25.25.25h1.5c.1385 0 .25-.1114999.25-.25v-1.5c0-.1384999-.1115-.25-.25-.25zm3 0c-.1385.0000001-.25.1115002-.25.25v1.5c0 .1385001.1115.25.25.25h1.5c.1385 0 .25-.1114999.25-.25v-1.5c0-.1384999-.1115-.25-.25-.25zm3 0c-.1385.0000001-.25.1115002-.25.25v1.5c0 .1385001.1115.25.25.25h1.5c.1385 0 .25-.1114999.25-.25v-1.5c0-.1384999-.1115-.25-.25-.25zm3 0c-.1385.0000001-.25.1115002-.25.25v1.5c0 .1385001.1115.25.25.25h1.5c.1385 0 .25-.1114999.25-.25v-1.5c0-.1384999-.1115-.25-.25-.25zm-9 2.9999998c-.1385 0-.25.1115-.25.25v1.5c0 .1385.1115.25.25.25h1.5c.1385 0 .25-.1115.25-.25v-1.5c0-.1385-.1115-.25-.25-.25zm3 0c-.1385 0-.25.1115-.25.25v1.5c0 .1385.1115.25.25.25h1.5c.1385 0 .25-.1115.25-.25v-1.5c0-.1385-.1115-.25-.25-.25zm3 0c-.1385 0-.25.1115-.25.25v1.5c0 .1385.1115.25.25.25h1.5c.1385 0 .25-.1115.25-.25v-1.5c0-.1385-.1115-.25-.25-.25zm3 0c-.1385 0-.25.1115-.25.25v1.5c0 .1385.1115.25.25.25h1.5c.1385 0 .25-.1115.25-.25v-1.5c0-.1385-.1115-.25-.25-.25z" fill="#5c616c"/></svg>
